X: 3
T: The Halting March
R: barndance
M: 4/4
L: 1/8
K: Ador
|: A2 (3Bcd e2 ed | e>d ef e^c A2 | G2 Bc d2 de | dB GB d2 cB |
A2 (3Bcd e2 ed | e>d ef e^c A2 | ag- ge dc- cB | A2 AG A2- A2 :|
|: aa- ag ed- de | g>a ge dB G2 | aa- ag ed- de | g>a ge g2 eg |
aa- ag ed- de | g>a ge dB GB | A>B cd e2 dB | A>B cd e2 e2 |
aa- ag ed- de | g>a ge dB GB | A>B cd e2 dB | A2 AG A2- A2 |]


